IMG/github.svg

<svg viewBox="0 0 226.71 226.71" xmlns="http://www.w3.org/2000/svg"><g fill="#fff" transform="translate(-28.38 -27.64)"><path d="m141.73 254.35a113.36 113.36 0 1 1 113.36-113.35 113.48 113.48 0 0 1 -113.36 113.35zm0-206.71a93.36 93.36 0 1 0 93.36 93.36 93.46 93.46 0 0 0 -93.36-93.36z"/><path d="m192.69 107.88a54.59 54.59 0 0 0 -1.54-21.22s-10.51-.79-21.32 7.29a39.32 39.32 0 0 0 -8-.82h-39.09a39 39 0 0 0 -8.49.93c-10.87-8.2-21.46-7.4-21.46-7.4a54.37 54.37 0 0 0 -1.45 21.89 39.57 39.57 0 0 0 -8.43 24.45v8.68a40 40 0 0 0 39.83 39.83h3.45a17.55 17.55 0 0 0 -6 13.19v2.09c-10.67 6.67-25.45-.13-27.57-5.45-1.79-4.47-6.26-9.19-6.26-9.19-8.55-8.56-13.83-1.49-13.83-1.49 6.47 1.19 12.26 11.57 12.26 11.57s2.72 15.77 17.36 18.17a45.54 45.54 0 0 0 18-.6v25.54a17.67 17.67 0 0 0 17.66 17.66h8.85a17.67 17.67 0 0 0 17.62-17.62v-40.72a17.59 17.59 0 0 0 -6-13.19h3.53a40 40 0 0 0 39.83-39.83v-8.64a39.64 39.64 0 0 0 -8.95-25.12z"/></g></svg>

<svg id="Calque_2" data-name="Calque 2" xmlns="http://www.w3.org/2000/svg" viewBox="0 0 226.71 226.71"><defs><style>.cls-1{fill:#fff;}</style></defs><path class="cls-1" d="M141.73,254.35A113.36,113.36,0,1,1,255.09,141,113.48,113.48,0,0,1,141.73,254.35Zm0-206.71A93.36,93.36,0,1,0,235.09,141,93.46,93.46,0,0,0,141.73,47.64Z" transform="translate(-28.38 -27.64)"/><path class="cls-1" d="M192.69,107.88a54.59,54.59,0,0,0-1.54-21.22s-10.51-.79-21.32,7.29a39.32,39.32,0,0,0-8-.82H122.74a39,39,0,0,0-8.49.93c-10.87-8.2-21.46-7.4-21.46-7.4a54.37,54.37,0,0,0-1.45,21.89A39.57,39.57,0,0,0,82.91,133v8.68a40,40,0,0,0,39.83,39.83h3.45a17.55,17.55,0,0,0-6,13.19v2.09c-10.67,6.67-25.45-.13-27.57-5.45-1.79-4.47-6.26-9.19-6.26-9.19-8.55-8.56-13.83-1.49-13.83-1.49,6.47,1.19,12.26,11.57,12.26,11.57S87.51,208,102.15,210.4a45.54,45.54,0,0,0,18-.6v25.54A17.67,17.67,0,0,0,137.81,253h8.85a17.67,17.67,0,0,0,17.62-17.62V194.66a17.59,17.59,0,0,0-6-13.19h3.53a40,40,0,0,0,39.83-39.83V133A39.64,39.64,0,0,0,192.69,107.88Z" transform="translate(-28.38 -27.64)"/></svg>
